apps/symbolic/web-browser-symbolic.svg

<svg xmlns="http://www.w3.org/2000/svg" viewBox="0 0 24 24">
  <path fill="#bebebe" d="M7.5 16.5l2.88-6.12L16.5 7.5l-2.88 6.12L7.5 16.5m4.5-5.31a.81.81 0 0 0-.81.81.81.81 0 0 0 .81.81.81.81 0 0 0 .81-.81.81.81 0 0 0-.81-.81M12 3a9 9 0 0 1 9 9 9 9 0 0 1-9 9 9 9 0 0 1-9-9 9 9 0 0 1 9-9m0 1.8A7.2 7.2 0 0 0 4.8 12a7.2 7.2 0 0 0 7.2 7.2 7.2 7.2 0 0 0 7.2-7.2A7.2 7.2 0 0 0 12 4.8z"/>
</svg>

<?xml version="1.0" encoding="UTF-8" standalone="no"?>
<svg
   xmlns:dc="http://purl.org/dc/elements/1.1/"
   xmlns:cc="http://creativecommons.org/ns#"
   xmlns:rdf="http://www.w3.org/1999/02/22-rdf-syntax-ns#"
   xmlns:svg="http://www.w3.org/2000/svg"
   xmlns="http://www.w3.org/2000/svg"
   xmlns:sodipodi="http://sodipodi.sourceforge.net/DTD/sodipodi-0.dtd"
   xmlns:inkscape="http://www.inkscape.org/namespaces/inkscape"
   version="1.1"
   width="24"
   height="24"
   viewBox="0 0 24 24"
   id="svg2"
   inkscape:version="0.92.1 r15371"
   sodipodi:docname="web-browser-symbolic.svg">
  <metadata
     id="metadata10">
    <rdf:RDF>
      <cc:Work
         rdf:about="">
        <dc:format>image/svg+xml</dc:format>
        <dc:type
           rdf:resource="http://purl.org/dc/dcmitype/StillImage" />
        <dc:title />
      </cc:Work>
    </rdf:RDF>
  </metadata>
  <defs
     id="defs8" />
  <sodipodi:namedview
     pagecolor="#ffffff"
     bordercolor="#666666"
     borderopacity="1"
     objecttolerance="10"
     gridtolerance="10"
     guidetolerance="10"
     inkscape:pageopacity="0"
     inkscape:pageshadow="2"
     inkscape:window-width="640"
     inkscape:window-height="480"
     id="namedview6"
     showgrid="false"
     inkscape:zoom="25.291667"
     inkscape:cx="4.9621087"
     inkscape:cy="12"
     inkscape:current-layer="svg2" />
  <path
     d="M 7.5,16.5 10.38,10.38 16.5,7.5 13.62,13.62 7.5,16.5 M 12,11.19 A 0.81,0.81 0 0 0 11.19,12 0.81,0.81 0 0 0 12,12.81 0.81,0.81 0 0 0 12.81,12 0.81,0.81 0 0 0 12,11.19 M 12,3 a 9,9 0 0 1 9,9 9,9 0 0 1 -9,9 9,9 0 0 1 -9,-9 9,9 0 0 1 9,-9 m 0,1.8 A 7.2,7.2 0 0 0 4.8,12 7.2,7.2 0 0 0 12,19.2 7.2,7.2 0 0 0 19.2,12 7.2,7.2 0 0 0 12,4.8 Z"
     id="path4"
     inkscape:connector-curvature="0"
     style="fill:#bebebe;fill-opacity:1;stroke-width:0.81818181" />
</svg>
